X: 6
T: Tzadik Katamar [in Gm]
O: Israel
M: 4/4
Z: John Chambers <jc@trillian.mit.edu>
L: 1/8
K: Gm
"D7"D2 \
|: "Gm"G2 GA B2 G2 | "D7"^F2 FG A2 D2 | "Gm"G2 GA B2 G2 |1 "D7"d6 :|2 "G7"d6 ||
|: "Cm"e2 e2 e2 d2 | "F"c2 Bc A2 Bc | "Bb"d2 d2 d2 c2 | "Eb"B2 A2 G2 B2 |
| "D7"A2 G2 ^F2 =E2 | ^F2 D2 F2 A2 |1 "Gm"d8- | "G7"d8 :|2 "Gm"G2z2 D2z2 | G2z2 z4 |]
